X: 1
T: the 28th of January
R: reel
S: Fiddle Hell Online 2022-3-26 handout for Fiddle Hell jam session
B: the Portland Collection 1 p.214
Z: 2022 John Chambers <jc:trillian.mit.edu>
M: C|
L: 1/8
K: Am
|:\
"Am"A,A,CE "D"DDFD | "Am"A,A,CE "D"D2EG | "Am"ABcB AGEG | ABcB AGED |
"Am"A,A,CE "D"DDFD | "Am"A,A,CE "D"D2EG | "Am"A2ea "G"geBA | "Em"EGA2 "Am"A4 :|
|:\
"Am"ea-a2 abag | egab a2ag | "G"efga bagf | efga bagf |
"Am"ea-a2 abag | egab a2ag | "G"efge dBAG | "Em"EGA2 "Am"A4 :|
